src/pos-icons/basket-fill.svg

<svg height="24" viewBox="0 0 24 24" width="24" xmlns="http://www.w3.org/2000/svg"><path d="m3 2h3v3h-3zm3 5h3v3h-3zm2-5h3v3h-3zm9 9-5-5h3v-4h4v4h3zm-9.5 11c-.78 0-1.46-.45-1.79-1.1l-2.61-7.46-.1-.44a1 1 0 0 1 1-1h16a1 1 0 0 1 1 1l-.04.29-2.67 7.61c-.33.65-1.01 1.1-1.79 1.1zm.11-2h8.78l2.18-6h-13.15z"/></svg>

<?xml version="1.0" encoding="UTF-8"?><!DOCTYPE svg PUBLIC "-//W3C//DTD SVG 1.1//EN" "http://www.w3.org/Graphics/SVG/1.1/DTD/svg11.dtd"><svg xmlns="http://www.w3.org/2000/svg" xmlns:xlink="http://www.w3.org/1999/xlink" version="1.1" id="mdi-basket-fill" width="24" height="24" viewBox="0 0 24 24"><path d="M3,2H6V5H3V2M6,7H9V10H6V7M8,2H11V5H8V2M17,11L12,6H15V2H19V6H22L17,11M7.5,22C6.72,22 6.04,21.55 5.71,20.9V20.9L3.1,13.44L3,13A1,1 0 0,1 4,12H20A1,1 0 0,1 21,13L20.96,13.29L18.29,20.9C17.96,21.55 17.28,22 16.5,22H7.5M7.61,20H16.39L18.57,14H5.42L7.61,20Z" /></svg>
